Newaita-dark/apps/32/web-outlook.svg

<?xml version="1.0" encoding="UTF-8"?>
<svg xmlns="http://www.w3.org/2000/svg" xmlns:xlink="http://www.w3.org/1999/xlink" width="32pt" height="32pt" viewBox="0 0 32 32" version="1.1">
<defs>
<radialGradient id="radial0" gradientUnits="userSpaceOnUse" cx="450.908936" cy="189.579361" fx="450.908936" fy="189.579361" r="21.166656" gradientTransform="matrix(0.00000017417,-0.0781325,-0.140638,-0.000000101539,51.469128,63.59533)">
<stop offset="0" style="stop-color:rgb(0%,0%,0%);stop-opacity:0.313725;"/>
<stop offset="0.222222" style="stop-color:rgb(0%,0%,0%);stop-opacity:0.27451;"/>
<stop offset="1" style="stop-color:rgb(0%,0%,0%);stop-opacity:0;"/>
</radialGradient>
<radialGradient id="radial1" gradientUnits="userSpaceOnUse" cx="450.908936" cy="189.579361" fx="450.908936" fy="189.579361" r="21.166656" gradientTransform="matrix(-0.00000017417,0.0781325,0.140638,0.000000101539,-19.716089,-7.527481)">
<stop offset="0" style="stop-color:rgb(0%,0%,0%);stop-opacity:0.313725;"/>
<stop offset="0.222222" style="stop-color:rgb(0%,0%,0%);stop-opacity:0.27451;"/>
<stop offset="1" style="stop-color:rgb(0%,0%,0%);stop-opacity:0;"/>
</radialGradient>
<radialGradient id="radial2" gradientUnits="userSpaceOnUse" cx="450.908936" cy="189.579361" fx="450.908936" fy="189.579361" r="21.166656" gradientTransform="matrix(-0.00000017417,-0.0781325,0.140638,-0.000000101539,-19.716089,63.59533)">
<stop offset="0" style="stop-color:rgb(0%,0%,0%);stop-opacity:0.313725;"/>
<stop offset="0.222222" style="stop-color:rgb(0%,0%,0%);stop-opacity:0.27451;"/>
<stop offset="1" style="stop-color:rgb(0%,0%,0%);stop-opacity:0;"/>
</radialGradient>
<radialGradient id="radial3" gradientUnits="userSpaceOnUse" cx="450.908936" cy="189.579361" fx="450.908936" fy="189.579361" r="21.166656" gradientTransform="matrix(0.00000017417,0.0781325,-0.140638,0.000000101539,51.469126,-7.527481)">
<stop offset="0" style="stop-color:rgb(0%,0%,0%);stop-opacity:0.313725;"/>
<stop offset="0.222222" style="stop-color:rgb(0%,0%,0%);stop-opacity:0.27451;"/>
<stop offset="1" style="stop-color:rgb(0%,0%,0%);stop-opacity:0;"/>
</radialGradient>
<linearGradient id="linear0" gradientUnits="userSpaceOnUse" x1="255.322968" y1="228.178589" x2="255.323044" y2="254.666656" gradientTransform="matrix(0.267201,0,0,0.0499487,-49.699909,16.636709)">
<stop offset="0" style="stop-color:rgb(0%,0%,0%);stop-opacity:0.27451;"/>
<stop offset="1" style="stop-color:rgb(0%,0%,0%);stop-opacity:0;"/>
</linearGradient>
<linearGradient id="linear1" gradientUnits="userSpaceOnUse" x1="328.083344" y1="233.5" x2="328.083344" y2="-168.666672" gradientTransform="matrix(0.062506,0,0,0.062506,0,13.438783)">
<stop offset="0" style="stop-color:rgb(87.843137%,87.843137%,87.843137%);stop-opacity:1;"/>
<stop offset="1" style="stop-color:rgb(93.333333%,93.333333%,93.333333%);stop-opacity:1;"/>
</linearGradient>
<linearGradient id="linear2" gradientUnits="userSpaceOnUse" x1="275.166687" y1="201.750015" x2="275.166687" y2="-200.416656" gradientTransform="matrix(1,0,0,1,-10.583357,31.749992)">
<stop offset="0" style="stop-color:rgb(47.058824%,56.470588%,61.176471%);stop-opacity:1;"/>
<stop offset="1" style="stop-color:rgb(56.470588%,64.313725%,68.235294%);stop-opacity:1;"/>
</linearGradient>
<linearGradient id="linear3" gradientUnits="userSpaceOnUse" x1="127" y1="233.5" x2="127" y2="-168.666656" gradientTransform="matrix(0.062506,0,0,0.062506,-0.000000208353,13.438783)">
<stop offset="0" style="stop-color:rgb(47.058824%,56.470588%,61.176471%);stop-opacity:1;"/>
<stop offset="1" style="stop-color:rgb(56.470588%,64.313725%,68.235294%);stop-opacity:1;"/>
</linearGradient>
<linearGradient id="linear4" gradientUnits="userSpaceOnUse" x1="423.333313" y1="-145.370667" x2="825.5" y2="-145.370667" gradientTransform="matrix(0.000000000000000061,-1,1,0.000000000000000061,401.542534,656.833321)">
<stop offset="0" style="stop-color:rgb(47.058824%,56.470588%,61.176471%);stop-opacity:1;"/>
<stop offset="1" style="stop-color:rgb(56.470588%,64.313725%,68.235294%);stop-opacity:1;"/>
</linearGradient>
</defs>
<g id="surface1">
<path style=" stroke:none;fill-rule:nonzero;fill:url(#radial0);" d="M 25.136719 28.035156 L 27.785156 28.035156 L 27.785156 26.710938 L 25.136719 26.710938 Z M 25.136719 28.035156 "/>
<path style=" stroke:none;fill-rule:nonzero;fill:url(#radial1);" d="M 6.613281 28.035156 L 3.96875 28.035156 L 3.96875 29.355469 L 6.613281 29.355469 Z M 6.613281 28.035156 "/>
<path style=" stroke:none;fill-rule:nonzero;fill:url(#radial2);" d="M 6.613281 28.035156 L 3.96875 28.035156 L 3.96875 26.710938 L 6.613281 26.710938 Z M 6.613281 28.035156 "/>
<path style=" stroke:none;fill-rule:nonzero;fill:url(#radial3);" d="M 25.136719 28.035156 L 27.785156 28.035156 L 27.785156 29.355469 L 25.136719 29.355469 Z M 25.136719 28.035156 "/>
<path style=" stroke:none;fill-rule:nonzero;fill:url(#linear0);" d="M 6.613281 27.507812 L 25.136719 27.507812 L 25.136719 29.355469 L 6.613281 29.355469 Z M 6.613281 27.507812 "/>
<path style=" stroke:none;fill-rule:nonzero;fill:url(#linear1);" d="M 11.246094 2.894531 L 26.460938 2.894531 C 27.191406 2.894531 27.785156 3.488281 27.785156 4.21875 L 27.785156 26.710938 C 27.785156 27.441406 27.191406 28.035156 26.460938 28.035156 L 11.246094 28.035156 C 10.515625 28.035156 9.921875 27.441406 9.921875 26.710938 L 9.921875 4.21875 C 9.921875 3.488281 10.515625 2.894531 11.246094 2.894531 Z M 11.246094 2.894531 "/>
<path style=" stroke:none;fill-rule:nonzero;fill:rgb(13.333334%,13.333334%,13.333334%);fill-opacity:0.156863;" d="M 27.785156 16.125 L 22.785156 17.867188 L 24.527344 22.863281 L 27.785156 21.730469 Z M 21.953125 18.15625 L 16.957031 19.898438 L 18.695312 24.894531 L 23.695312 23.15625 Z M 27.785156 22.664062 L 24.816406 23.699219 L 26.328125 28.035156 L 26.460938 28.035156 C 27.195312 28.035156 27.785156 27.445312 27.785156 26.710938 Z M 23.984375 23.988281 L 18.988281 25.730469 L 19.789062 28.035156 L 25.394531 28.035156 Z M 23.984375 23.988281 "/>
<path style="fill-rule:nonzero;fill:url(#linear2);stroke-width:3;stroke-linecap:round;stroke-linejoin:round;stroke:rgb(12.941177%,12.941177%,12.941177%);stroke-opacity:1;stroke-miterlimit:4;" d="M 232.852764 -105.135492 L 402.149097 -105.135492 C 408.023536 -105.135492 412.773082 -100.448439 412.773082 -94.574 L 412.773082 127.654778 C 412.773082 133.529217 408.023536 138.278764 402.149097 138.278764 L 232.852764 138.278764 C 226.978325 138.278764 222.228778 133.529217 222.228778 127.654778 L 222.228778 -94.574 C 222.228778 -100.448439 226.978325 -105.135492 232.852764 -105.135492 Z M 232.852764 -105.135492 " transform="matrix(0.062506,0,0,0.062506,0,13.438783)"/>
<path style=" stroke:none;fill-rule:nonzero;fill:rgb(100%,100%,100%);fill-opacity:1;" d="M 11.246094 2.894531 C 10.511719 2.894531 9.921875 3.484375 9.921875 4.21875 L 9.921875 4.550781 C 9.921875 3.816406 10.511719 3.226562 11.246094 3.226562 L 26.460938 3.226562 C 27.195312 3.226562 27.785156 3.816406 27.785156 4.550781 L 27.785156 4.21875 C 27.785156 3.484375 27.195312 2.894531 26.460938 2.894531 Z M 11.246094 2.894531 "/>
<path style=" stroke:none;fill-rule:nonzero;fill:rgb(0%,0%,0%);fill-opacity:0.235294;" d="M 9.921875 26.378906 L 9.921875 26.710938 C 9.921875 27.445312 10.511719 28.035156 11.246094 28.035156 L 26.460938 28.035156 C 27.195312 28.035156 27.785156 27.445312 27.785156 26.710938 L 27.785156 26.378906 C 27.785156 27.113281 27.195312 27.703125 26.460938 27.703125 L 11.246094 27.703125 C 10.511719 27.703125 9.921875 27.113281 9.921875 26.378906 Z M 9.921875 26.378906 "/>
<path style=" stroke:none;fill-rule:nonzero;fill:rgb(12.941177%,12.941177%,12.941177%);fill-opacity:1;" d="M 11.246094 2.800781 C 10.460938 2.800781 9.828125 3.4375 9.828125 4.21875 L 9.828125 26.710938 C 9.828125 27.496094 10.460938 28.128906 11.246094 28.128906 L 26.460938 28.128906 C 27.246094 28.128906 27.878906 27.496094 27.878906 26.710938 L 27.878906 4.21875 C 27.878906 3.4375 27.246094 2.800781 26.460938 2.800781 Z M 11.246094 2.988281 L 26.460938 2.988281 C 27.144531 2.988281 27.691406 3.535156 27.691406 4.21875 L 27.691406 26.710938 C 27.691406 27.394531 27.144531 27.941406 26.460938 27.941406 L 11.246094 27.941406 C 10.5625 27.941406 10.015625 27.394531 10.015625 26.710938 L 10.015625 4.21875 C 10.015625 3.535156 10.5625 2.988281 11.246094 2.988281 Z M 11.246094 2.988281 "/>
<path style=" stroke:none;fill-rule:nonzero;fill:url(#linear3);" d="M 5.292969 2.894531 C 4.558594 2.894531 3.96875 3.484375 3.96875 4.21875 L 3.96875 26.710938 C 3.96875 27.445312 4.558594 28.035156 5.292969 28.035156 L 11.90625 28.035156 L 11.90625 2.894531 Z M 5.292969 2.894531 "/>
<path style=" stroke:none;fill-rule:nonzero;fill:rgb(100%,100%,100%);fill-opacity:0.392157;" d="M 5.292969 2.894531 C 4.558594 2.894531 3.96875 3.484375 3.96875 4.21875 L 3.96875 4.550781 C 3.96875 3.816406 4.558594 3.226562 5.292969 3.226562 L 11.578125 3.226562 L 11.578125 28.035156 L 11.90625 28.035156 L 11.90625 2.894531 Z M 5.292969 2.894531 "/>
<path style=" stroke:none;fill-rule:nonzero;fill:rgb(0%,0%,0%);fill-opacity:0.235294;" d="M 3.96875 26.378906 L 3.96875 26.710938 C 3.96875 27.445312 4.558594 28.035156 5.292969 28.035156 L 11.90625 28.035156 L 11.90625 27.703125 L 5.292969 27.703125 C 4.558594 27.703125 3.96875 27.113281 3.96875 26.378906 Z M 3.96875 26.378906 "/>
<path style=" stroke:none;fill-rule:nonzero;fill:rgb(12.941177%,12.941177%,12.941177%);fill-opacity:1;" d="M 5.292969 2.800781 C 4.507812 2.800781 3.875 3.4375 3.875 4.21875 L 3.875 26.710938 C 3.875 27.496094 4.507812 28.128906 5.292969 28.128906 L 11.90625 28.128906 C 11.960938 28.128906 12 28.085938 12 28.035156 L 12 2.894531 C 12 2.84375 11.960938 2.800781 11.90625 2.800781 Z M 5.292969 2.988281 L 11.8125 2.988281 L 11.8125 27.941406 L 5.292969 27.941406 C 4.609375 27.941406 4.0625 27.394531 4.0625 26.710938 L 4.0625 4.21875 C 4.0625 3.535156 4.609375 2.988281 5.292969 2.988281 Z M 5.292969 2.988281 "/>
<path style="fill-rule:nonzero;fill:url(#linear4);stroke-width:3;stroke-linecap:round;stroke-linejoin:round;stroke:rgb(12.941177%,12.941177%,12.941177%);stroke-opacity:1;stroke-miterlimit:4;" d="M 222.291272 127.654778 C 222.291272 133.529217 227.040819 138.278764 232.852764 138.278764 L 245.97651 138.278764 L 326.09386 28.039291 C 328.718609 24.477131 328.781103 19.665091 326.343836 15.977943 L 245.601546 -105.135492 L 232.852764 -105.135492 C 227.040819 -105.135492 222.291272 -100.448439 222.291272 -94.574 Z M 222.291272 127.654778 " transform="matrix(0.062506,0,0,0.062506,0,13.438783)"/>
</g>
</svg>

<svg xmlns="http://www.w3.org/2000/svg" width="32pt" height="32pt" viewBox="0 0 32 32"><defs><radialGradient id="a" gradientUnits="userSpaceOnUse" cx="450.909" cy="189.579" fx="450.909" fy="189.579" r="21.167" gradientTransform="matrix(0 -.07813 -.14064 0 51.47 63.595)"><stop offset="0" stop-opacity=".314"/><stop offset=".222" stop-opacity=".275"/><stop offset="1" stop-opacity="0"/></radialGradient><radialGradient id="b" gradientUnits="userSpaceOnUse" cx="450.909" cy="189.579" fx="450.909" fy="189.579" r="21.167" gradientTransform="matrix(0 .07813 .14064 0 -19.716 -7.527)"><stop offset="0" stop-opacity=".314"/><stop offset=".222" stop-opacity=".275"/><stop offset="1" stop-opacity="0"/></radialGradient><radialGradient id="c" gradientUnits="userSpaceOnUse" cx="450.909" cy="189.579" fx="450.909" fy="189.579" r="21.167" gradientTransform="matrix(0 -.07813 .14064 0 -19.716 63.595)"><stop offset="0" stop-opacity=".314"/><stop offset=".222" stop-opacity=".275"/><stop offset="1" stop-opacity="0"/></radialGradient><radialGradient id="d" gradientUnits="userSpaceOnUse" cx="450.909" cy="189.579" fx="450.909" fy="189.579" r="21.167" gradientTransform="matrix(0 .07813 -.14064 0 51.47 -7.527)"><stop offset="0" stop-opacity=".314"/><stop offset=".222" stop-opacity=".275"/><stop offset="1" stop-opacity="0"/></radialGradient><linearGradient id="e" gradientUnits="userSpaceOnUse" x1="255.323" y1="228.179" x2="255.323" y2="254.667" gradientTransform="matrix(.2672 0 0 .04995 -49.7 16.637)"><stop offset="0" stop-opacity=".275"/><stop offset="1" stop-opacity="0"/></linearGradient><linearGradient id="f" gradientUnits="userSpaceOnUse" x1="328.083" y1="233.5" x2="328.083" y2="-168.667" gradientTransform="matrix(.0625 0 0 .0625 0 13.439)"><stop offset="0" stop-color="#e0e0e0"/><stop offset="1" stop-color="#eee"/></linearGradient><linearGradient id="g" gradientUnits="userSpaceOnUse" x1="275.167" y1="201.75" x2="275.167" y2="-200.417" gradientTransform="translate(-10.583 31.75)"><stop offset="0" stop-color="#78909c"/><stop offset="1" stop-color="#90a4ae"/></linearGradient><linearGradient id="h" gradientUnits="userSpaceOnUse" x1="127" y1="233.5" x2="127" y2="-168.667" gradientTransform="matrix(.0625 0 0 .0625 0 13.439)"><stop offset="0" stop-color="#78909c"/><stop offset="1" stop-color="#90a4ae"/></linearGradient><linearGradient id="i" gradientUnits="userSpaceOnUse" x1="423.333" y1="-145.371" x2="825.5" y2="-145.371" gradientTransform="rotate(-90 529.188 127.645)"><stop offset="0" stop-color="#78909c"/><stop offset="1" stop-color="#90a4ae"/></linearGradient></defs><path d="M25.137 28.035h2.648v-1.324h-2.648zm0 0" fill="url(#a)"/><path d="M6.613 28.035H3.97v1.32h2.644zm0 0" fill="url(#b)"/><path d="M6.613 28.035H3.97v-1.324h2.644zm0 0" fill="url(#c)"/><path d="M25.137 28.035h2.648v1.32h-2.648zm0 0" fill="url(#d)"/><path d="M6.613 27.508h18.524v1.847H6.613zm0 0" fill="url(#e)"/><path d="M11.246 2.895h15.215c.73 0 1.324.593 1.324 1.324V26.71c0 .73-.594 1.324-1.324 1.324H11.246c-.73 0-1.324-.594-1.324-1.324V4.219c0-.73.594-1.324 1.324-1.324zm0 0" fill="url(#f)"/><path d="M27.785 16.125l-5 1.742 1.742 4.996 3.258-1.133zm-5.832 2.031l-4.996 1.742 1.738 4.997 5-1.739zm5.832 4.508L24.816 23.7l1.512 4.336h.133a1.32 1.32 0 0 0 1.324-1.324zm-3.8 1.324l-4.997 1.742.801 2.305h5.606zm0 0" fill="#222" fill-opacity=".157"/><path d="M232.853-105.135h169.296c5.875 0 10.624 4.687 10.624 10.561v222.229c0 5.874-4.75 10.624-10.624 10.624H232.853a10.615 10.615 0 0 1-10.624-10.624V-94.574c0-5.874 4.75-10.561 10.624-10.561zm0 0" transform="matrix(.0625 0 0 .0625 0 13.439)" fill="url(#g)" stroke-width="3" stroke-linecap="round" stroke-linejoin="round" stroke="#212121"/><path d="M11.246 2.895a1.32 1.32 0 0 0-1.324 1.324v.332c0-.735.59-1.324 1.324-1.324h15.215c.734 0 1.324.59 1.324 1.324v-.332a1.32 1.32 0 0 0-1.324-1.324zm0 0" fill="#fff"/><path d="M9.922 26.379v.332c0 .734.59 1.324 1.324 1.324h15.215a1.32 1.32 0 0 0 1.324-1.324v-.332a1.32 1.32 0 0 1-1.324 1.324H11.246a1.32 1.32 0 0 1-1.324-1.324zm0 0" fill-opacity=".235"/><path d="M11.246 2.8c-.785 0-1.418.638-1.418 1.419V26.71c0 .785.633 1.418 1.418 1.418h15.215c.785 0 1.418-.633 1.418-1.418V4.219c0-.782-.633-1.418-1.418-1.418zm0 .188h15.215c.684 0 1.23.547 1.23 1.23v22.493c0 .684-.546 1.23-1.23 1.23H11.246c-.684 0-1.23-.546-1.23-1.23V4.219c0-.684.546-1.23 1.23-1.23zm0 0" fill="#212121"/><path d="M5.293 2.895a1.32 1.32 0 0 0-1.324 1.324V26.71c0 .734.59 1.324 1.324 1.324h6.613V2.895zm0 0" fill="url(#h)"/><path d="M5.293 2.895a1.32 1.32 0 0 0-1.324 1.324v.332c0-.735.59-1.324 1.324-1.324h6.285v24.808h.328V2.895zm0 0" fill="#fff" fill-opacity=".392"/><path d="M3.969 26.379v.332c0 .734.59 1.324 1.324 1.324h6.613v-.332H5.293a1.32 1.32 0 0 1-1.324-1.324zm0 0" fill-opacity=".235"/><path d="M5.293 2.8c-.785 0-1.418.638-1.418 1.419V26.71c0 .785.633 1.418 1.418 1.418h6.613a.093.093 0 0 0 .094-.094V2.895c0-.051-.04-.094-.094-.094zm0 .188h6.52v24.953h-6.52c-.684 0-1.23-.546-1.23-1.23V4.219c0-.684.546-1.23 1.23-1.23zm0 0" fill="#212121"/><path d="M222.291 127.655c0 5.874 4.75 10.624 10.562 10.624h13.124l80.117-110.24c2.625-3.562 2.687-8.374.25-12.061l-80.742-121.113h-12.75c-5.811 0-10.56 4.687-10.56 10.561zm0 0" transform="matrix(.0625 0 0 .0625 0 13.439)" fill="url(#i)" stroke-width="3" stroke-linecap="round" stroke-linejoin="round" stroke="#212121"/></svg>
